svgs/sharp-light/pallet.svg

<svg xmlns="http://www.w3.org/2000/svg" viewBox="0 0 640 512"><!--! Font Awesome Pro 6.6.0 by @fontawesome - https://fontawesome.com License - https://fontawesome.com/license (Commercial License) Copyright 2024 Fonticons, Inc. --><path d="M16 352L0 352l0 32 16 0 48 0 0 96-48 0L0 480l0 32 16 0 48 0 16 0 16 0 208 0 16 0 16 0 208 0 16 0 16 0 48 0 16 0 0-32-16 0-48 0 0-96 48 0 16 0 0-32-16 0-48 0-16 0-16 0-208 0-16 0-16 0L96 352l-16 0-16 0-48 0zm80 32l208 0 0 96L96 480l0-96zm240 0l208 0 0 96-208 0 0-96z"/></svg>

<svg xmlns="http://www.w3.org/2000/svg" viewBox="0 0 640 512"><!--! Font Awesome Pro 6.4.0 by @fontawesome - https://fontawesome.com License - https://fontawesome.com/license (Commercial License) Copyright 2023 Fonticons, Inc. --><path d="M16 352H0v32H16 64v96H16 0v32H16 64 80 96 304h16 16H544h16 16 48 16V480H624 576V384h48 16V352H624 576 560 544 336 320 304 96 80 64 16zm80 32H304v96H96V384zm240 0H544v96H336V384z"/></svg>
